svgs/regular/table-list.svg

<svg xmlns="http://www.w3.org/2000/svg" viewBox="0 0 512 512"><!--! Font Awesome Pro 6.6.0 by @fontawesome - https://fontawesome.com License - https://fontawesome.com/license (Commercial License) Copyright 2024 Fonticons, Inc. --><path d="M192 80l0 88 272 0 0-72c0-8.8-7.2-16-16-16L192 80zm-48 0L64 80c-8.8 0-16 7.2-16 16l0 72 96 0 0-88zM48 216l0 80 96 0 0-80-96 0zm0 128l0 72c0 8.8 7.2 16 16 16l80 0 0-88-96 0zm144 88l256 0c8.8 0 16-7.2 16-16l0-72-272 0 0 88zM464 296l0-80-272 0 0 80 272 0zM0 96C0 60.7 28.7 32 64 32l384 0c35.3 0 64 28.7 64 64l0 320c0 35.3-28.7 64-64 64L64 480c-35.3 0-64-28.7-64-64L0 96z"/></svg>

<svg xmlns="http://www.w3.org/2000/svg" viewBox="0 0 512 512"><!--! Font Awesome Pro 6.5.2 by @fontawesome - https://fontawesome.com License - https://fontawesome.com/license (Commercial License) Copyright 2024 Fonticons, Inc. --><path d="M192 80v88H464V96c0-8.8-7.2-16-16-16H192zm-48 0H64c-8.8 0-16 7.2-16 16v72h96V80zM48 216v80h96V216H48zm0 128v72c0 8.8 7.2 16 16 16h80V344H48zm144 88H448c8.8 0 16-7.2 16-16V344H192v88zM464 296V216H192v80H464zM0 96C0 60.7 28.7 32 64 32H448c35.3 0 64 28.7 64 64V416c0 35.3-28.7 64-64 64H64c-35.3 0-64-28.7-64-64V96z"/></svg>
